icons/viral_lung_infection.svg

<svg width="48" height="48" viewBox="0 0 48 48" fill="none" xmlns="http://www.w3.org/2000/svg">
<path fill-rule="evenodd" clip-rule="evenodd" d="M23.176 6C24 6.00001 24 6.00006 24 6.00015L24 15L24 22.5C24 23.8977 24.564 24.4421 25.0039 24.6987C25.0454 24.7229 25.0871 24.7453 25.1288 24.7659C25.1381 24.4136 25.1438 24.0816 25.1438 23.7741C25.1438 23.5557 25.1413 23.3141 25.1386 23.0536C25.129 22.1292 25.1169 20.9674 25.2059 19.7648C25.7138 20.7001 26.3665 21.5453 27.1339 22.2703C27.1348 22.5151 27.1369 22.7538 27.139 22.9845C27.1415 23.2601 27.1438 23.5247 27.1438 23.7741C27.1438 24.6132 27.1109 25.4992 27.0763 26.4278C27.0181 27.9912 26.9554 29.6756 27.0379 31.4616C27.1005 32.8152 27.2476 34.0564 27.522 35.0952C27.8004 36.1488 28.1709 36.8445 28.5733 37.2583C29.7554 38.4739 31.6215 39.4545 33.5188 39.8339C35.382 40.2065 36.8517 39.9301 37.7095 39.2697L37.7185 39.2471C37.7731 39.1067 37.8402 38.8625 37.8949 38.4885C38.0043 37.7402 38.0328 36.6956 37.959 35.4083C37.812 32.8473 37.2769 29.5985 36.4318 26.4016C36.2894 25.8629 36.1391 25.3292 35.9815 24.8037C36.6447 24.6704 37.2841 24.4715 37.8927 24.214C40.0122 31.2758 40.738 39.313 39.1138 40.7049C36.1202 43.2701 30.1331 41.731 27.1395 38.6526C24.8499 36.2982 24.917 30.9622 25.0581 26.8625C24.7443 26.7801 24.3728 26.646 23.9961 26.4263C23.6398 26.2184 23.2975 25.9442 23 25.5919C22.7026 25.9442 22.3602 26.2184 22.0039 26.4263C21.6273 26.646 21.2557 26.7801 20.942 26.8625C21.083 30.9622 21.1501 36.2982 18.8605 38.6526C15.8669 41.731 9.87984 43.2701 6.88627 40.7049C3.8927 38.1396 8.88199 13 15.8669 13C20.9659 13 20.8968 19.6426 20.8614 23.0536C20.8587 23.3141 20.8562 23.5557 20.8562 23.7741C20.8562 24.0816 20.862 24.4136 20.8712 24.7659C20.9129 24.7453 20.9546 24.7229 20.9961 24.6987C21.436 24.4421 22 23.8977 22 22.5V6.00015C22 6.00005 22 6 23 6C23.0625 6 23.1211 6 23.176 6ZM15.8669 15C16.7095 15 17.1736 15.269 17.5061 15.622C17.8996 16.0396 18.2376 16.7235 18.4763 17.7051C18.893 19.4193 18.8753 21.3925 18.861 22.9851C18.8586 23.2605 18.8562 23.5248 18.8562 23.7741C18.8562 24.6132 18.8892 25.4992 18.9237 26.4278C18.9819 27.9912 19.0446 29.6756 18.9621 31.4616C18.8996 32.8152 18.7524 34.0564 18.478 35.0952C18.1996 36.1488 17.8291 36.8445 17.4267 37.2583C16.2446 38.4739 14.3786 39.4545 12.4813 39.8339C10.618 40.2065 9.14833 39.9301 8.29049 39.2697L8.28148 39.2471C8.22695 39.1067 8.15983 38.8625 8.10514 38.4885C7.99571 37.7402 7.96719 36.6956 8.04105 35.4083C8.18798 32.8473 8.7231 29.5985 9.56824 26.4016C10.4169 23.1915 11.5451 20.1597 12.8219 17.9786C13.4615 16.8861 14.0882 16.0944 14.6626 15.5967C15.232 15.1033 15.6267 15 15.8669 15ZM8.31662 39.3267L8.31966 39.332L8.31923 39.331L8.31662 39.3267ZM37.6834 39.3267C37.6813 39.3307 37.6801 39.3325 37.6801 39.3324L37.6814 39.33L37.6834 39.3267Z" fill="black"/>
<path fill-rule="evenodd" clip-rule="evenodd" d="M31.2426 10.8284C31.7674 10.4808 32.3616 10.2296 33 10.1V9C32.4477 9 32 8.55228 32 8C32 7.44772 32.4477 7 33 7L35 7C35.5523 7 36 7.44772 36 8C36 8.55228 35.5523 9 35 9V10.1C35.6384 10.2296 36.2326 10.4808 36.7574 10.8284L37.5858 9.99992C37.1953 9.6094 37.1953 8.97624 37.5858 8.58571C37.9764 8.19519 38.6095 8.19519 39 8.58571L40.4143 9.99992C40.8048 10.3904 40.8048 11.0236 40.4143 11.4141C40.0237 11.8047 39.3906 11.8047 39 11.4141L38.1716 12.2426C38.5192 12.7674 38.7704 13.3616 38.9 14H40C40 13.4477 40.4477 13 41 13C41.5523 13 42 13.4477 42 14V16C42 16.5523 41.5523 17 41 17C40.4477 17 40 16.5523 40 16H38.9C38.7704 16.6384 38.5192 17.2326 38.1716 17.7574L39 18.5859C39.3906 18.1953 40.0237 18.1953 40.4143 18.5859C40.8048 18.9764 40.8048 19.6096 40.4143 20.0001L39 21.4143C38.6095 21.8048 37.9764 21.8048 37.5858 21.4143C37.1953 21.0238 37.1953 20.3906 37.5858 20.0001L36.7574 19.1716C36.2326 19.5192 35.6384 19.7704 35 19.9V21C35.5523 21 36 21.4477 36 22C36 22.5523 35.5523 23 35 23H33C32.4477 23 32 22.5523 32 22C32 21.4477 32.4477 21 33 21V19.9C32.3616 19.7704 31.7674 19.5192 31.2426 19.1716L30.4142 20.0001C30.8047 20.3906 30.8047 21.0238 30.4142 21.4143C30.0236 21.8048 29.3905 21.8048 29 21.4143L27.5857 20.0001C27.1952 19.6096 27.1952 18.9764 27.5857 18.5859C27.9763 18.1953 28.6094 18.1953 29 18.5859L29.8284 17.7574C29.4808 17.2326 29.2296 16.6384 29.1 16H28C28 16.5523 27.5523 17 27 17C26.4477 17 26 16.5523 26 16V14C26 13.4477 26.4477 13 27 13C27.5523 13 28 13.4477 28 14H29.1C29.2296 13.3616 29.4808 12.7674 29.8284 12.2426L29 11.4143C28.6095 11.8048 27.9764 11.8048 27.5858 11.4143C27.1953 11.0238 27.1953 10.3906 27.5858 10.0001L28.2835 9.30236L28.2929 9.29289L28.3024 9.28355L29 8.58586C29.3906 8.19534 30.0237 8.19534 30.4143 8.58586C30.8048 8.97639 30.8048 9.60955 30.4143 10.0001L31.2426 10.8284ZM31 15C31 13.3431 32.3431 12 34 12C35.6569 12 37 13.3431 37 15C37 16.6569 35.6569 18 34 18C32.3431 18 31 16.6569 31 15Z" fill="black"/>
</svg>

<svg
  xmlns="http://www.w3.org/2000/svg"
  width="24"
  height="24"
  viewBox="0 0 24 24"
  fill="none"
  stroke="currentColor"
  stroke-width="2"
  stroke-linecap="round"
  stroke-linejoin="round"
>
  <path
    fill-rule="evenodd"
    d="M23.176 6H24v16.5c0 1.398.564 1.942 1.004 2.199q.062.036.125.067a38 38 0 0 0 .01-1.712c-.01-.925-.022-2.087.067-3.29a10 10 0 0 0 1.928 2.506q.001.368.005.715.005.414.005.79c0 .838-.033 1.724-.068 2.653-.058 1.563-.12 3.248-.038 5.034.063 1.353.21 2.594.484 3.633.278 1.054.649 1.75 1.051 2.163 1.182 1.216 3.049 2.197 4.946 2.576 1.863.372 3.333.096 4.19-.564l.01-.023c.054-.14.121-.385.176-.758.11-.749.138-1.793.064-3.08-.147-2.562-.682-5.81-1.527-9.007a51 51 0 0 0-.45-1.598 10 10 0 0 0 1.91-.59c2.12 7.062 2.846 15.099 1.222 16.49-2.994 2.566-8.98 1.027-11.974-2.051-2.29-2.355-2.223-7.69-2.082-11.79a4.3 4.3 0 0 1-1.062-.437 3.8 3.8 0 0 1-.996-.834c-.297.352-.64.626-.996.834-.377.22-.748.354-1.062.437.141 4.1.208 9.435-2.082 11.79-2.993 3.078-8.98 4.617-11.974 2.052S8.882 13 15.866 13c5.1 0 5.03 6.643 4.995 10.054q-.004.391-.005.72 0 .463.015.992.063-.03.125-.067c.44-.257 1.004-.801 1.004-2.199V6h1.176m-7.31 9c.843 0 1.308.269 1.64.622.394.418.732 1.102.97 2.083.417 1.714.4 3.688.385 5.28q-.004.415-.005.79c0 .838.033 1.724.068 2.653.058 1.563.12 3.248.038 5.034-.062 1.353-.21 2.594-.484 3.633-.278 1.054-.649 1.75-1.051 2.163-1.182 1.216-3.048 2.197-4.946 2.576-1.863.372-3.333.096-4.19-.564l-.01-.023a3.7 3.7 0 0 1-.176-.758c-.11-.749-.138-1.793-.064-3.08.147-2.562.682-5.81 1.527-9.007.849-3.21 1.977-6.242 3.254-8.423.64-1.093 1.266-1.885 1.84-2.382.57-.494.965-.597 1.205-.597m-7.55 24.327.004.005v-.001zm29.367 0-.003.005.001-.002z"
    clip-rule="evenodd"
  />
  <path
    fill-rule="evenodd"
    d="M31.243 10.828A5 5 0 0 1 33 10.1V9a1 1 0 1 1 0-2h2a1 1 0 1 1 0 2v1.1c.638.13 1.233.38 1.757.728l.829-.828A1 1 0 0 1 39 8.586L40.414 10A1 1 0 1 1 39 11.414l-.828.829c.347.524.598 1.119.728 1.757H40a1 1 0 1 1 2 0v2a1 1 0 1 1-2 0h-1.1a5 5 0 0 1-.728 1.757l.828.829A1 1 0 1 1 40.414 20L39 21.414A1 1 0 0 1 37.586 20l-.829-.828A5 5 0 0 1 35 19.9V21a1 1 0 1 1 0 2h-2a1 1 0 1 1 0-2v-1.1a5 5 0 0 1-1.757-.728l-.829.828A1 1 0 0 1 29 21.414L27.586 20A1 1 0 0 1 29 18.586l.828-.829A5 5 0 0 1 29.1 16H28a1 1 0 1 1-2 0v-2a1 1 0 1 1 2 0h1.1c.13-.638.38-1.233.728-1.757L29 11.414A1 1 0 0 1 27.586 10l.698-.698.009-.01.01-.008.697-.698A1 1 0 0 1 30.414 10zM31 15a3 3 0 1 1 6 0 3 3 0 0 1-6 0"
    clip-rule="evenodd"
  />
</svg>
